src/assets/icons/lastschrift.svg

<svg xmlns="http://www.w3.org/2000/svg" preserveAspectRatio="xMidYMid" viewBox="0 0 41.031 28.969">
  <path fill-rule="evenodd" d="M40.915 4.305L30.213 22.842a.86.86 0 0 1-.27.286l-5.592 3.692a.86.86 0 0 1-.9.026.86.86 0 0 1-.426-.793l.402-6.688a.855.855 0 0 1 .112-.378L34.241.452a.855.855 0 0 1 .484-.388c.152-.048 1.531-.426 3.71.832 2.177 1.258 2.54 2.641 2.575 2.795a.855.855 0 0 1-.095.614zm-14.332 17.12c-.841-.485-1.503-.666-1.949-.725l-.121 2.005c.343.134.692.303 1.04.504.348.201.67.418.955.647l1.677-1.106c-.276-.356-.762-.84-1.602-1.325zm-6.547 5.538c-2.253 0-5.103-1.22-7.206-.182-.343.168-.836.503-1.249.328-.427-.182-1.066-.356-1.156-.917a3.152 3.152 0 0 1-.025-.649c-.133.254-.28.498-.439.726-.627.904-2.352.368-1.89-.807.032-.08.072-.164.112-.248l-.008-.002.154-.387a2.328 2.328 0 0 0-.666.658c-.764 1.077-2.52.094-1.785-1.058a35.126 35.126 0 0 0 1.465-2.244c-1.913 2.006-3.69 4.15-5.367 6.36-.8 1.054-2.598.013-1.785-1.059 1.893-2.495 3.85-5.001 6.07-7.207.888-.882 2.073-2.352 3.454-2.299.333.013.747.184.893.519.476 1.102.007 2.464-.719 3.752a.964.964 0 0 1 .645.46c.058.1.098.2.14.3.62-.104 1.24.137 1.726.981.163.28.218.487.218.641 2.604-.435 4.79.237 7.418.237 1.333 0 1.333 2.097 0 2.097z"/>
</svg>

<svg xmlns="http://www.w3.org/2000/svg" xmlns:xlink="http://www.w3.org/1999/xlink" preserveAspectRatio="xMidYMid" width="41.031" height="28.969" viewBox="0 0 41.031 28.969">
  <defs>
    <style>
      .cls-1 {
        fill: #7a7a7a;
        fill-rule: evenodd;
      }
    </style>
  </defs>
  <path d="M40.915,4.305 L30.213,22.842 C30.146,22.957 30.054,23.055 29.943,23.128 L24.351,26.820 C24.080,26.997 23.733,27.008 23.451,26.846 C23.171,26.683 23.006,26.377 23.025,26.053 L23.427,19.365 C23.434,19.232 23.473,19.103 23.539,18.987 L34.241,0.452 C34.349,0.266 34.521,0.128 34.725,0.064 C34.877,0.016 36.256,-0.362 38.435,0.896 C40.612,2.154 40.975,3.537 41.010,3.691 C41.056,3.901 41.023,4.119 40.915,4.305 ZM26.583,21.425 C25.742,20.940 25.080,20.759 24.634,20.700 L24.513,22.705 C24.856,22.839 25.205,23.008 25.553,23.209 C25.901,23.410 26.223,23.627 26.508,23.856 L28.185,22.750 C27.909,22.394 27.423,21.910 26.583,21.425 ZM20.036,26.963 C17.783,26.963 14.933,25.743 12.830,26.781 C12.487,26.949 11.994,27.284 11.581,27.109 C11.154,26.927 10.515,26.753 10.425,26.192 C10.387,25.952 10.391,25.718 10.400,25.543 C10.267,25.797 10.120,26.041 9.961,26.269 C9.334,27.173 7.609,26.637 8.071,25.462 C8.103,25.382 8.143,25.298 8.183,25.214 C8.180,25.213 8.178,25.212 8.175,25.212 C8.227,25.082 8.278,24.954 8.329,24.825 C8.076,24.999 7.845,25.201 7.663,25.483 C6.899,26.560 5.143,25.577 5.878,24.425 C6.393,23.700 6.882,22.948 7.343,22.181 C5.430,24.187 3.653,26.331 1.976,28.541 C1.176,29.595 -0.622,28.554 0.191,27.482 C2.084,24.987 4.041,22.481 6.261,20.275 C7.149,19.393 8.334,17.923 9.715,17.976 C10.048,17.989 10.462,18.160 10.608,18.495 C11.084,19.597 10.615,20.959 9.889,22.247 C10.144,22.304 10.372,22.438 10.534,22.707 C10.592,22.807 10.632,22.907 10.674,23.007 C11.294,22.903 11.914,23.144 12.400,23.988 C12.563,24.268 12.618,24.475 12.618,24.629 C15.222,24.194 17.408,24.866 20.036,24.866 C21.369,24.866 21.369,26.963 20.036,26.963 Z" class="cls-1"/>
</svg>
